src/components/icons/CommentIcon.svg

<svg width="24" height="24" viewBox="0 0 24 24" fill="none" xmlns="http://www.w3.org/2000/svg">
<path fill-rule="evenodd" clip-rule="evenodd" d="M4.17157 5.17157C3 6.34315 3 8.22876 3 12V19.6454C3 20.428 3 20.8193 3.10346 21.0287C3.3255 21.4781 3.84595 21.6937 4.32073 21.533C4.54195 21.458 4.81865 21.1814 5.37204 20.628L5.37205 20.628L5.37207 20.6279C5.82081 20.1792 6.04518 19.9548 6.29242 19.7736C6.81055 19.3939 7.41251 19.1446 8.04737 19.0467C8.35032 19 8.66763 19 9.30224 19H13.5C16.7875 19 18.4312 19 19.5376 18.092C19.7401 17.9258 19.9258 17.7401 20.092 17.5376C21 16.4312 21 14.7875 21 11.5C21 8.21252 21 6.56878 20.092 5.46243C19.9258 5.25989 19.7401 5.07418 19.5376 4.90796C18.4312 4 16.7875 4 13.5 4H11C7.22876 4 5.34315 4 4.17157 5.17157ZM7.5 13C8.32843 13 9 12.3284 9 11.5C9 10.6716 8.32843 10 7.5 10C6.67157 10 6 10.6716 6 11.5C6 12.3284 6.67157 13 7.5 13ZM13.5 11.5C13.5 12.3284 12.8284 13 12 13C11.1716 13 10.5 12.3284 10.5 11.5C10.5 10.6716 11.1716 10 12 10C12.8284 10 13.5 10.6716 13.5 11.5ZM16.5 13C17.3284 13 18 12.3284 18 11.5C18 10.6716 17.3284 10 16.5 10C15.6716 10 15 10.6716 15 11.5C15 12.3284 15.6716 13 16.5 13Z" fill="#8DA2CB"/>
</svg>

<svg width="24" height="24" fill="none" xmlns="http://www.w3.org/2000/svg"><path fill-rule="evenodd" clip-rule="evenodd" d="M4.172 5.172C3 6.343 3 8.229 3 12v7.645c0 .783 0 1.174.103 1.384a1 1 0 001.218.504c.221-.075.498-.352 1.051-.905.449-.449.673-.673.92-.854a4 4 0 011.755-.727C8.35 19 8.667 19 9.302 19H13.5c3.288 0 4.931 0 6.038-.908.202-.166.388-.352.554-.554C21 16.43 21 14.788 21 11.5c0-3.287 0-4.931-.908-6.038a4 4 0 00-.554-.554C18.43 4 16.788 4 13.5 4H11C7.229 4 5.343 4 4.172 5.172zM7.5 13a1.5 1.5 0 100-3 1.5 1.5 0 000 3zm6-1.5a1.5 1.5 0 11-3 0 1.5 1.5 0 013 0zm3 1.5a1.5 1.5 0 100-3 1.5 1.5 0 000 3z" fill="#8DA2CB"/></svg>
